!!!!SEGMENT: pl-wn--sd-xvi-qu-273--130_gomolka-mikolaj--w-troskach-glebokich-ponurzony.krn
!!!cenid: 15xx:335
!!!COM: Gomółka, Mikołaj
!!!COM-rismid: pe30013343
!!!CDT: ~1535->1591/04/30
!!!CNT: Polish
!!!GTL: Melodiae na psalterz polski
!!!OTL: CXXX. W troskach głębokich ponurzony,
!!!ONB: PSAL: CXXX. De profundis clamavi ad te domine, domine exaudi vocem meam.
!!!PDT: 1580
!!!AGN: Sacred
!!!SMS-siglum: PL-Wn
!!!SMS-shelfmark: SD XVI.Qu.273
!!!SMS-shelfwork: 130 G
!!!NIFC-rismid:
!!!ONB-nifc: Melodiae na psalterz polski
**kern	**text	**kern	**text	**kern	**text	**kern	**text
*part4	*part4	*part3	*part3	*part2	*part2	*part1	*part1
*staff4	*staff4	*staff3	*staff3	*staff2	*staff2	*staff1	*staff1
*clefF3	*	*clefC3	*	*clefC3	*	*clefG2	*
*k[b-B-]	*	*k[b-]	*	*k[b-]	*	*k[b-]	*
*A:	*	*A:	*	*A:	*	*A:	*
*M2/1	*	*M2/1	*	*M2/1	*	*M2/1	*
*met(C|)	*	*met(C|)	*	*met(C|)	*	*met(C|)	*
*I"BASSUS.	*	*I"TENOR.	*	*I"ALTUS.	*	*I"CANTUS.	*
=1-	=1	=1-	=1	=1-	=1	=1-	=1
!LO:TX:t=P:dwa bemole przy kluczu:problem	!	!	!	!	!	!	!
1A\	W Tro-	1c#X\	W Tro-	1e\	W Tro-	1a/	W Tro-
2D/	-ſkách	2d\	-ſkách	2f\	-ſkách	2f/	-ſkách
1G\	głę-	4B-/	głę-	1d\	głę-	2g/	głę-
.	.	4A/	.	.	.	.	.
=2-	=2	=2-	=2	=2-	=2	=2-	=2
.	.	4B-/	-bo-	.	.	2b-/	-bo-
.	.	4cny/	.	.	.	.	.
4F#X/	-bo-	2d\	-kich	2d\	-bo-	4a/	-kich
4E/	.	.	.	.	.	4g/	.
2F#X/	-kich	2A/	po-	2d\	-kich	2a/	po-
2.G\	po-	2.B-/	-nu-	1d\	po-	2.g/	-nu-
=3-	=3	=3-	=3	=3-	=3	=3-	=3
.	.	.	.	.	.	.	.
4A\	.	4c/	.	.	.	4f/	.
2B-\	-nu-	1d\	-rʒo-	2B-/	-nu-	4e/	-rʒo-
.	.	.	.	.	.	4d/	.
2A\	-rʒo-	.	.	2.c/	-rʒo-	1e/	-ny,
2AA/	-ny,	2c/	.	.	.	.	.
.	.	.	.	4B-/	.	.	.
=4-	=4	=4-	=4	=4-	=4	=4-	=4
2D/	Do	2d\	-ny,	2A/	-ny,	2d/	Do
2D/	ćie-	2d\	Do	2f\	Do	2a/	.
2A\	.	2c\	ćie-	2e\	ćie-	2a/	ćie-
2D/	-bie,	2.d\	-bie,	2.f\	-bie,	2a/	-bie,
=5-	=5	=5-	=5	=5-	=5	=5-	=5
1d\	bo-	.	.	.	.	1dd\	bo-
.	.	4e\	.	4g\	bo-	.	.
.	.	2f\	bo-	2a\	-ʒ̇e	.	.
2A\	-ʒ̇e	2e\	-ʒ̇e	1a\	nie-	2cc#X\	-ʒ̇e
2D/	nie-	4f\	nie-	.	.	4dd\	nie-
.	.	4e\	.	.	.	4ccny\	.
=6-	=6	=6-	=6	=6-	=6	=6-	=6
2G\	-ʒmie-	4d\	-ʒmie-	2.g\	-ʒmie-	4b-/	-ʒmie-
.	.	4c\	.	.	.	4a/	.
2G\	-rʒo-	2d\	-rʒo-	.	.	2b-/	-rʒo-
.	.	.	.	4f\	-rʒo-	.	.
!!LO:PB:g=original
2A\	-ny,	2c#X/	-ny,	2e\	-ny,	2a/	-ny,
!	!	!LO:SIC:s=2c#:v	!	!	!	!	!
2A\	Wo-	2cny/	Wo-	4a\	Wo-	2ee\	Wo-
.	.	.	.	4g\	.	.	.
=7-	=7	=7-	=7	=7-	=7	=7-	=7
2D/	-łam:	2.d\	-łam:	4f\	-łam:	2.ff\	-łam:
.	.	.	.	4g\	.	.	.
4d\	rácʒ	.	.	1a\	rácʒ	.	.
4c\	.	4e\	.	.	.	4ee\	.
4B-\	.	2f\	rácʒ	.	.	4dd\	rácʒ
4A\	.	.	.	.	.	4cc#X\	.
2B-\	ſmu-	4e\	ſmu-	2g\	ſmu-	2dd\	ſmu-
.	.	4d\	.	.	.	.	.
=8-	=8	=8-	=8	=8-	=8	=8-	=8
2A\	-tné	2e\	-tné	2a\	-tné	2cc#X\	-tné
2A\	proś-	2c#X/	proś-	2a\	proś-	2ee\	proś-
2B-\	-by	2d\	-by	2f\	-by	2dd\	-by
2B-\	mo-	2d\	mo-	2g\	mo-	2dd\	mo-
=9-	=9	=9-	=9	=9-	=9	=9-	=9
2A\	-ie	2e\	-ie	2a\	-ie	2cc#X\	-ie
2D/	Przi-	2d\	Przi-	2a\	Przi-	2dd\	Przi-
1G\	-jąć	1d\	-jąć	1g\	-jąć	2.dd\	-jąć
.	.	.	.	.	.	4ccny\	w łá-
=10-	=10	=10-	=10	=10-	=10	=10-	=10
2G\	w łá-	2d\	w łá-	2.g\	w łá-	2b-/	-ſká-
2G\	-ſká-	2d\	-ſká-	.	.	2b-/	-wé
.	.	.	.	4f\	-ſká-	.	.
2A\	-wé	2cny/	-wé	2e\	-wé	2a/	u-
2Fny/	u-	4f\	u-	2a\	u-	2cc\	-ſʒy
.	.	4e\	.	.	.	.	.
=11-	=11	=11-	=11	=11-	=11	=11-	=11
2G\	-ſʒy	4d\	-ſʒy	2.g\	-ſʒy	1b-\	ſwo-
.	.	4c\	.	.	.	.	.
2G\	ſwo-	2d\	ſwo-	.	.	.	.
.	.	.	.	4f\	ſwo-	.	.
000A\	-ie.	000c#X\	-ie.	000e\	-ie.	000a/	-ie.
==	==	==	==	==	==	==	==
*-	*-	*-	*-	*-	*-	*-	*-
!!!RDF**kern: l = terminal long
!!!system-decoration: s1,s2,s3,s4
!!!ENC: Marta Lawrence
!!!END: 2020-02-21
!!!URL-scan: https://polona.pl/item/melodiae-na-psalterz-polski,Nzk3MTM4ODQ/304 Scan on Polona
!!!IIIF: https://polona.pl/iiif/item/Nzk3MTM4ODQ/manifest.json
